X:74
T:Kusen
R:Polska
S:Kus-Erik
Z:Transcribed to abcby Jon Magnusson 080910
O:Hlsingland
M:3/4
L:1/16
K:A
A2Bc d2dB c2cA|e2ec d2dB c2cB|A2Bc d2dB c2cA|cBAG A2cA E4|
A2Bc d2dB c2cA|e2ec d2dB c2cB|A2Bc d2dB c2cA|[1 cBAG A8:|[2 cBAG A6 f2|]
|:e2d2 c4 c2Bc|d2c2 B6 f2|e2d2 c4 c2Bc|d2c2 B6 c2|
B2G2 A3G A2B2|cBcd e2fg a3g|f2e2 d2fd c2ec|[1 B2AG A6 f2:|[2 B2AG A8|]
